!!!!SEGMENT: pl-sa--79-a-ii-19--009_siwinski-andrzej--missa-pro-defunctis-quaerens-me.krn
!!!cenid: 17xx:301
!!!COM: Siwiński, Andrzej
!!!COM-rism: pe41011487
!!!CDT: <1725->1725
!!!CNT:
!!!OTL: Missa pro defunctis – Quaerens me
!!!PDT: 1726
!!!AGN: Sacred; Mass
!!!SMS-siglum: PL-SA
!!!SMS-shelfmark: 79/A II 19
!!!NIFC-rismID: 1001070177
!!!URL-scan: http://bc.bdsandomierz.pl/dlibra/publication/1356/edition/1324/content
!!!ONB-nifc: Uwaga: części Mszy: Requiem, Kyrie, Dies Irae, Quantus tremor, Tuba mirrum, Mors, Quid sum miser, Rex tremende, Quaerens me, Iuste iudex, Oro supplex, Pie Iesu Domine, Domine Iesu Christe,Quam olim Abrahae, Hostias, Sanctus, Osanna, Benedictus, Agnus Dei
**kern	**fba	**kern	**kern	**kern	**text	**kern	**text	**kern	**text	**kern	**text	**kern	**kern
*part9	*	*part8	*part7	*part6	*part6	*part5	*part5	*part4	*part4	*part3	*part3	*part2	*part1
*staff9	*	*staff8	*staff7	*staff6	*staff6	*staff5	*staff5	*staff4	*staff4	*staff3	*staff3	*staff2	*staff1
*I"P9	*	*I"Violino 2do	*I"Violino 1mo	*I"P6	*	*I"P5	*	*I"Alto	*	*I"Canto	*	*I"Hobois 2do	*I"Hautbo. 1mo
*I'Org	*	*I'Vl II	*I'Vl I	*I'B	*	*I'T	*	*I'A	*	*I'C	*	*I'Ob II	*I'Ob I
*clefF4	*	*clefG2	*clefG2	*clefF4	*	*clefC4	*	*clefC3	*	*clefC1	*	*clefG2	*clefG2
*k[b-e-]	*	*k[b-e-]	*k[b-e-]	*k[b-e-]	*	*k[b-e-]	*	*k[b-e-]	*	*k[b-e-]	*	*k[b-e-]	*k[b-e-]
*M3/4	*	*M3/4	*M3/4	*M3/4	*	*M3/4	*	*M3/4	*	*M3/4	*	*M3/4	*M3/4
=1	=1	=1	=1	=1	=1	=1	=1	=1	=1	=1	=1	=1	=1
!LO:SIC:o:s:=:v: brak nazwy partii (na stronie tytułowej "Baſso pro Organo")	!	!	!	!LO:SIC:o:s:=:v: brak nazwy partii (na stronie tytułowej "Baſso vocali")	!	!LO:SIC:o:s:=:v: brak nazwy partii (na stronie tytułowej "Tenore")	!	!	!	!	!	!	!
!LO:SIC:o:s:=:v:znaki na początku systemu.brak powtórzenia przy metrum	!	!LO:SIC:o:s:=:v:znaki na początku systemu.brak powtórzenia przy metrum	!	!	!	!LO:SIC:o:s:=:v:znaki na początku systemu.brak powtórzenia przy metrum	!	!LO:SIC:o:s:=:v:znaki na początku systemu.brak powtórzenia przy metrum	!	!	!	!	!
!LO:TX:a:t=Tutti	!	!	!	!	!	!	!	!	!	!	!	!	!
!LO:TX:b:t=Qua(e)rens me.	!	!	!	!	!	!	!	!	!	!	!	!LO:N:vis=00	!LO:N:vis=00
4GG/	.	4r	4r	4r	.	4r	.	4r	.	4r	.	0.r	0.r
!	!	!LO:TX:b:t=Qua(e)rens Mesedisti	!	!	!	!LO:SIC:o:s:=:v:brak ae w słowie "Quaerens"	!	!LO:SIC:o:s:=:v:brak ae w słowie "Quaerens"	!	!LO:SIC:o:s:=:v:brak ae w słowie "Quaerens"	!	!	!LO:TX:b:t=Qua(e)rens me.
4G\	.	4dd\	4gg\	4G\	Quae-	4G/	Que-	4d\	Que-	(8b-\L	Que-	.	.
.	.	.	.	.	.	.	.	.	.	8cc\J)	.	.	.
4G\	.	4dd\	4gg\	4G\	-rens	4G/	-rens	4d\	-rens	4dd\	-rens	.	.
=2	=2	=2	=2	=2	=2	=2	=2	=2	=2	=2	=2	=2	=2
4.F#X\	6	4.dd\	4.aa\	4.F#X\	me-	4.A\	me-	4.d\	me-	4.a\	me-	.	.
!	!	!	!LO:TX:a:t=P:problem:# above	!	!	!	!	!	!	!	!	!	!
8D\L	.	8dd\L	8ff#X\L	8D\	-se-	8A\	-se-	8d\	-se-	8a\	-se-	.	.
!	!	!LO:TX:a:t=P:problem:♮ above	!	!	!	!	!	!	!	!	!	!	!
8En\	.	8een\	8gg\	8En\	-di-	8en\	-di-	8en\	-di-	8a\	-di-	.	.
!	!	!LO:TX:a:t=P:problem:# above	!	!	!	!	!	!	!	!	!	!	!
8F#X\J	6	8ff#X\J	8aa\J	8F#X\	-sti	8d\	-sti	8f#X\	-sti	8a\	-sti	.	.
!LO:LB:g=original	!	!	!	!	!	!	!	!	!	!	!	!	!
=3	=3	=3	=3	=3	=3	=3	=3	=3	=3	=3	=3	=3	=3
2G\	.	4gg\	4bb-\	4G\	Las-	4d\	las-	4g\	las-	4b-\	las-	.	.
.	.	8b-/L	8dd\L	4GG/	-ſus	4d\	-ſus	4g\	-ſus	4g\	-ſus	.	.
.	.	8cc/	8ee-\	.	.	.	.	.	.	.	.	.	.
4r	.	8b-/	8dd\	4r	.	4r	.	4r	.	4r	.	.	.
.	.	8a/J	8cc\J	.	.	.	.	.	.	.	.	.	.
=4	=4	=4	=4	=4	=4	=4	=4	=4	=4	=4	=4	=4	=4
4r	.	4g\	4b-/	4r	.	4r	.	4r	.	4r	.	.	.
4G\	.	4dd\	4gg\	4G\	re-	4G/	Re-	4d\	Re-	(8b-\L	Re-	.	.
.	.	.	.	.	.	.	.	.	.	8cc\J)	.	.	.
4G\	.	4dd\	4gg\	4G\	-de-	4G/	-de-	4d\	-de-	4dd\	-de-	.	.
=5	=5	=5	=5	=5	=5	=5	=5	=5	=5	=5	=5	=5	=5
!	!	!	!	!	!	!	!	!	!	!	!	!LO:N:vis=00	!LO:N:vis=00
4.F#X\	6	4.dd\	4.aa\	4.F#X\	-mi-	4.A\	-mi-	4.d\	-mi-	4.a\	-mi-	0.r	0.r
8D\L	.	8dd\L	8ff#X\L	8D\	-sti	8A\	-sti	8d\	-sti	8a\	-sti	.	.
8En\	.	8een\	8gg\	8En\	Cru-	8en\	Cru-	8en\	Cru-	8a\	Cru-	.	.
8F#X\J	6	8ff#X\J	8aa\J	8F#X\	-cem	8d\	-cem	8f#X\	-cem	8a\	-cem	.	.
=6	=6	=6	=6	=6	=6	=6	=6	=6	=6	=6	=6	=6	=6
2G\	.	4gg\	4bb-\	4G\	pas-	4d\	Pas-	4g\	Pas-	4b-\	Pas-	.	.
.	.	8b-/L	8dd\L	4GG/	-ſus	4d\	-ſus	4g\	-ſus	4g\	-ſus	.	.
.	.	8cc/	8ee-\	.	.	.	.	.	.	.	.	.	.
4r	.	8b-/	8dd\	4r	.	4r	.	4r	.	4r	.	.	.
.	.	8a/J	8cc\J	.	.	.	.	.	.	.	.	.	.
!	!	!	!	!	!	!	!	!LO:LB:g=original	!	!	!	!	!
=7	=7	=7	=7	=7	=7	=7	=7	=7	=7	=7	=7	=7	=7
4r	.	4g\	4b-/	4r	.	4r	.	4r	.	4r	.	.	.
4BB-/	.	4dd\	4ff\	4D/	tan-	4d\	tan-	4f\	tan-	4b-\	tan-	.	.
!	!	!	!	!	!	!LO:SIC:o:s:=:v:brak kreski taktowej	!	!	!	!	!	!	!
4BB-/	.	4b-\	4ff\	4D/	-tu(s)	4d\	-tus	4f\	-tus	4b-\	-tus	.	.
=8	=8	=8	=8	=8	=8	=8	=8	=8	=8	=8	=8	=8	=8
!	!	!	!	!LO:SIC:o:s:=:v:tekst - powinno być "labor"	!	!	!	!	!	!	!LO:SIC:o:s:=:v:tekst - powinno być "labor"	!	!
4.E-\	.	4ee-\	4.gg\	4.E-X\	la-	4.e-X\	la-	4.g\	la-	4.b-\	lar-	.	.
.	.	4ff\	.	.	.	.	.	.	.	.	.	.	.
!	!	!	!	!	!	!LO:LB:g=original	!	!	!	!	!	!	!
8F\	.	.	8aa\	8F\	-bro	8c\	-bor	8a\	-bor	8cc\	-bor	.	.
4G\	.	4dd\	4bb-\	4G\	n(on)	4d\	non	4g\	non	4dd\	non	.	.
!	!	!	!	!LO:LB:g=original	!	!	!	!	!	!LO:LB:g=original	!	!	!
=9	=9	=9	=9	=9	=9	=9	=9	=9	=9	=9	=9	=9	=9
!	!	!	!	!	!	!	!	!	!	!	!	!LO:N:vis=00	!LO:N:vis=00
4E-\	.	4b-\	4gg\	4E-\	si(t)	4e-\	sit	4g\	sit	4b-\	sit	0.r	0.r
*	*	*	*2\right	*	*	*	*	*	*	*	*	*	*
2F\	4	2cc\	2ff\	2F\	cas-	2A/	cas-	2f\	cas-	2cc\	Cas-	.	.
.	3	.	.	.	.	.	.	.	.	.	.	.	.
!	!	!LO:LB:g=original	!	!	!	!	!	!	!	!	!	!	!
=10	=10	=10	=10	=10	=10	=10	=10	=10	=10	=10	=10	=10	=10
!	!	!LO:SIC:o:s:=:v:fragment pustej pięciolinii, od połowy wypełnione 3 pole	!	!	!	!	!	!	!	!	!	!	!
4BB-/	.	4dd\	4ff\	4BB-/	-ſus	4B-\	-ſus	4f\	-ſus	4b-\	-ſus	.	.
4r	.	4r	4r	4r	.	4r	.	4r	.	8ff\L	no-	.	.
.	.	.	.	.	.	.	.	.	.	8gg\	.	.	.
4A\	.	4r	4r	4r	.	4r	.	4r	.	(8ff\	.	.	.
.	.	.	.	.	.	.	.	.	.	8ee-\J)	.	.	.
=11	=11	=11	=11	=11	=11	=11	=11	=11	=11	=11	=11	=11	=11
4B-\	.	4dd\	4ff\	4B-\	no(n)	4B-\	non	4f\	non	4dd\	-n	.	.
8F\L	.	4r	4r	4r	.	4r	.	4r	.	4r	.	.	.
8G\	.	.	.	.	.	.	.	.	.	.	.	.	.
!	!	!	!	!	!	!LO:SIC:o:s:=:v:przekreślone n	!	!	!	!	!	!	!
8F\	.	4cc\	4aa\	4F\	n(on)	4A\	n(on)	4f\	n(on)	4cc\	non	.	.
8E-\J	.	.	.	.	.	.	.	.	.	.	.	.	.
=12	=12	=12	=12	=12	=12	=12	=12	=12	=12	=12	=12	=12	=12
8D\L	6	4dd\	4.ff\	4BB-/	si(t)	4B-\	sit	4f\	sit	(8dd\L	sit	.	.
8E-\J	.	.	.	.	.	.	.	.	.	8ee-\J)	.	.	.
2F\	4	4cc\	.	2F/	cas-	2c\	cas-	2f\	cas-	2cc\	cas-	.	.
.	.	.	8gg\L	.	.	.	.	.	.	.	.	.	.
.	3	4cc\	8aa\	.	.	.	.	.	.	.	.	.	.
.	.	.	8ff\J	.	.	.	.	.	.	.	.	.	.
=13	=13	=13	=13	=13	=13	=13	=13	=13	=13	=13	=13	=13	=13
!	!	!	!	!	!	!	!	!	!	!	!	!LO:N:vis=00	!LO:N:vis=00
4BB-/	.	4dd\	4bb-\	4BB-/	-ſus	4d\	-ſus	4f\	-ſus	4b-\	-ſus	0.r	0.r
4r	.	4r	4r	4r	.	4r	.	4r	.	8dd\L	No-	.	.
.	.	.	.	.	.	.	.	.	.	8ee-\	.	.	.
4F#X\	6	4r	4r	4r	.	4r	.	4r	.	8dd\	.	.	.
.	.	.	.	.	.	.	.	.	.	8cc\J	.	.	.
!	!	!	!LO:LB:g=original	!	!	!	!	!	!	!	!	!	!
=14	=14	=14	=14	=14	=14	=14	=14	=14	=14	=14	=14	=14	=14
!	!	!	!LO:TX:a:t=d	!	!	!	!	!	!	!	!	!	!
4G\	.	4b-/	4dd\	4G\	n(on)	4d\	non	4g\	non	4b-\	-n	.	.
!LO:LB:g=original	!	!	!	!	!	!	!	!	!	!	!	!	!
8D/L	.	4r	4r	4r	.	4r	.	4r	.	4r	.	.	.
8E-/	.	.	.	.	.	.	.	.	.	.	.	.	.
!	!	!	!	!	!	!LO:SIC:o:s:=:v:przekreślone n	!	!	!	!	!	!	!
8D/	.	4a/	4dd\	4D\	n(on)	4d\	n(on)	4f#X\	n(on)	4a\	non	.	.
8C/J	.	.	.	.	.	.	.	.	.	.	.	.	.
=15	=15	=15	=15	=15	=15	=15	=15	=15	=15	=15	=15	=15	=15
8BB-/L	6 5	4b-/	4gg\	4GG/	si(t)	4d\	sit	4g\	sit	4b-\	sit	.	.
8C/J	.	.	.	.	.	.	.	.	.	.	.	.	.
4D\	.	2a/	8ff#X\L	2D/	cas-	2d\	cas-	2f#X\	cas-	2a\	cas-	.	.
.	.	.	8dd\	.	.	.	.	.	.	.	.	.	.
4DD/	.	.	8een\	.	.	.	.	.	.	.	.	.	.
!	!	!	!LO:TX:a:t=P:problem:# above	!	!	!	!	!	!	!	!	!	!
.	.	.	8ff#X\J	.	.	.	.	.	.	.	.	.	.
=16	=16	=16	=16	=16	=16	=16	=16	=16	=16	=16	=16	=16	=16
4GG/	.	4b-/	4gg\	4GG/	-ſus	4d\	-ſus	4g\	-ſus	4g/	-ſus	.	.
4r	.	4r	4r	4r	.	4r	.	4r	.	8dd\L	No-	.	.
.	.	.	.	.	.	.	.	.	.	8ee-\	.	.	.
4F#X\	6	4r	4r	4r	.	4r	.	4r	.	8dd\	.	.	.
.	.	.	.	.	.	.	.	.	.	8cc\J	.	.	.
=17	=17	=17	=17	=17	=17	=17	=17	=17	=17	=17	=17	=17	=17
!	!	!	!	!	!	!	!	!	!	!	!	!LO:N:vis=0	!LO:N:vis=0
4G\	.	4b-/	4dd\	4G\	n(on)	4d\	Non	4g\	Non	4b-\	-n	1.r	1.r
8D/L	.	4r	4r	4r	.	4r	.	4r	.	4r	.	.	.
8E-/	.	.	.	.	.	.	.	.	.	.	.	.	.
!	!	!	!	!	!	!	!	!LO:LB:g=original	!	!	!	!	!
!	!	!	!	!LO:SIC:o:s:=:v:przekreślone n	!	!LO:SIC:o:s:=:v:przekreślone n	!	!	!	!	!	!	!
8D/	.	4a/	4dd\	4D\	n(on)	4d\	n(on)	4f#X\	n(on)	4a\	Non	.	.
8C/J	.	.	.	.	.	.	.	.	.	.	.	.	.
=18	=18	=18	=18	=18	=18	=18	=18	=18	=18	=18	=18	=18	=18
8BB-/L	6 5	4b-/	4gg\	4GG/	si(t)	4d\	sit	4g\	sit	4b-\	Sit	.	.
8C/J	.	.	.	.	.	.	.	.	.	.	.	.	.
4D/	.	2a/	8ff#X\L	2D/	Cas-	2d\	Cas-	2f#X\	cas-	2a\	cas-	.	.
.	.	.	8dd\	.	.	.	.	.	.	.	.	.	.
4DD/	.	.	8een\	.	.	.	.	.	.	.	.	.	.
!	!	!	!LO:TX:a:t=P:problem:# above	!	!	!	!	!	!	!	!	!	!
.	.	.	8ff#X\J	.	.	.	.	.	.	.	.	.	.
=19	=19	=19	=19	=19	=19	=19	=19	=19	=19	=19	=19	=19	=19
!	!	!	!	!	!	!	!	!	!	!	!	!	!
4GG/	.	2.b-/	4gg\	2.GG/	-ſus	4d\	-ſus	4g\	-ſus	4g/	-ſus	4r	4r
2ryy	.	.	2ryy	.	.	2ryy	.	2ryy	.	2ryy	.	2ryy	2ryy
=||	=||	=||	=||	=||	=||	=||	=||	=||	=||	=||	=||	=||	=||
*-	*-	*-	*-	*-	*-	*-	*-	*-	*-	*-	*-	*-	*-
!!!system-decoration: [(s1,s2)][(s3,s4,s5,s6)][(s7,s8)]s9
!!!EED: Leszek Kubiak
!!!EST: 2020-12-03
!!!ENC: Andrzej Kubiczek
!!!END: 2020-04-21
